public/luts/osmo-action-5-pro.cube
#Created by: Affinity
TITLE "OSMO Action 5 Pro"
#LUT size
LUT_3D_SIZE 64
#data domain
DOMAIN_MIN 0.0 0.0 0.0
DOMAIN_MAX 1.0 1.0 1.0
#LUT data points
0.000752 0.000000 0.000000
0.016285 0.000000 0.000000
0.034722 0.000000 0.000000
0.053005 0.000000 0.000000
0.071625 0.000000 0.000000
0.090935 0.000000 0.000000
0.110711 0.000000 0.000000
0.130867 0.000000 0.000000
0.151336 0.000000 0.000000
0.172084 0.000000 0.000000
0.194521 0.000000 0.000000
0.217219 0.000000 0.000000
0.239758 0.000000 0.000000
0.262004 0.000000 0.000000
0.284004 0.000000 0.000000
0.305871 0.000000 0.000000
0.327778 0.000000 0.000000
0.349651 0.000000 0.000000
0.371532 0.000000 0.000000
0.393408 0.000000 0.000000
0.415244 0.000000 0.000000
0.437029 0.000000 0.000000
0.458769 0.000000 0.000000
0.480455 0.000000 0.000000
0.502092 0.000000 0.000000
0.523474 0.000000 0.000000
0.544535 0.000000 0.000000
0.565255 0.000000 0.000000
0.585701 0.000000 0.000000
0.605777 0.000000 0.000000
0.625481 0.000000 0.000000
0.644861 0.000000 0.000000
0.663927 0.000000 0.000000
0.682605 0.000000 0.000000
0.700925 0.000000 0.000000
0.718895 0.000000 0.000000
0.736492 0.000000 0.000000
0.753693 0.000000 0.000000
0.770506 0.000000 0.000000
0.786937 0.000000 0.000000
0.802948 0.000000 0.000000
0.818556 0.000000 0.000000
0.833723 0.000000 0.000000
0.848438 0.000000 0.000000
0.862738 0.000000 0.000000
0.876545 0.000000 0.000000
0.889879 0.000000 0.000000
0.902674 0.000000 0.000000
0.914990 0.000000 0.000000
0.926734 0.000000 0.000000
0.937909 0.000000 0.000000
0.948470 0.000000 0.000000
0.958377 0.000000 0.000000
0.967585 0.000000 0.000000
0.976014 0.000000 0.000000
0.983596 0.000000 0.000000
0.990171 0.000000 0.000000
0.995564 0.000000 0.000000
0.999319 0.000000 0.000000
1.000000 0.000000 0.000000
1.000000 0.000000 0.000000
1.000000 0.000000 0.000000
1.000000 0.000000 0.000000
1.000000 0.000000 0.000000
0.000000 0.013301 0.000000
0.014351 0.012757 0.000000
0.032667 0.012189 0.000000
0.051316 0.011611 0.000000
0.070277 0.010875 0.000000
0.089786 0.009984 0.000000
0.109710 0.008916 0.000000
0.130045 0.007649 0.000000
0.150580 0.006235 0.000000
0.171514 0.004531 0.000000
0.193936 0.001734 0.000000
0.216355 0.000000 0.000000
0.238657 0.000000 0.000000
0.260742 0.000000 0.000000
0.282641 0.000000 0.000000
0.304601 0.000000 0.000000
0.326566 0.000000 0.000000
0.348496 0.000000 0.000000
0.370456 0.000000 0.000000
0.392390 0.000000 0.000000
0.414306 0.000000 0.000000
0.436112 0.000000 0.000000
0.457913 0.000000 0.000000
0.479601 0.000000 0.000000
0.501300 0.000000 0.000000
0.522712 0.000000 0.000000
0.543842 0.000000 0.000000
0.564590 0.000000 0.000000
0.585065 0.000000 0.000000
0.605170 0.000000 0.000000
0.624919 0.000000 0.000000
0.644361 0.000000 0.000000
0.663436 0.000000 0.000000
0.682157 0.000000 0.000000
0.700501 0.000000 0.000000
0.718464 0.000000 0.000000
0.736101 0.000000 0.000000
0.753341 0.000000 0.000000
0.770178 0.000000 0.000000
0.786602 0.000000 0.000000
0.802650 0.000000 0.000000
0.818252 0.000000 0.000000
0.833441 0.000000 0.000000
0.848203 0.000000 0.000000
0.862499 0.000000 0.000000
0.876289 0.000000 0.000000
0.889644 0.000000 0.000000
0.902483 0.000000 0.000000
0.914785 0.000000 0.000000
0.926559 0.000000 0.000000
0.937743 0.000000 0.000000
0.948323 0.000000 0.000000
0.958239 0.000000 0.000000
0.967466 0.000000 0.000000
0.975913 0.000000 0.000000
0.983494 0.000000 0.000000
0.990095 0.000000 0.000000
0.995517 0.000000 0.000000
0.999285 0.000000 0.000000
1.000000 0.000000 0.000000
1.000000 0.000000 0.000000
1.000000 0.000000 0.000000
1.000000 0.000000 0.000000
1.000000 0.000000 0.000000
0.000000 0.029899 0.000000
0.012431 0.029294 0.000000
0.030527 0.028730 0.000000
0.049608 0.028111 0.000000
0.068975 0.027326 0.000000
0.088776 0.026350 0.000000
0.108932 0.025184 0.000000
0.129379 0.023801 0.000000
0.150118 0.022203 0.000000
0.171478 0.020002 0.000000
0.193702 0.016903 0.000000
0.215906 0.013616 0.000000
0.237901 0.010281 0.000000
0.259714 0.006940 0.000000
0.281543 0.003458 0.000000
0.303430 0.000000 0.000000
0.325412 0.000000 0.000000
0.347420 0.000000 0.000000
0.369438 0.000000 0.000000
0.391432 0.000000 0.000000
0.413329 0.000000 0.000000
0.435234 0.000000 0.000000
0.457057 0.000000 0.000000
0.478825 0.000000 0.000000
0.500527 0.000000 0.000000
0.522007 0.000000 0.000000
0.543129 0.000000 0.000000
0.563981 0.000000 0.000000
0.584447 0.000000 0.000000
0.604580 0.000000 0.000000
0.624392 0.000000 0.000000
0.643843 0.000000 0.000000
0.662928 0.000000 0.000000
0.681675 0.000000 0.000000
0.700045 0.000000 0.000000
0.718065 0.000000 0.000000
0.735695 0.000000 0.000000
0.752959 0.000000 0.000000
0.769804 0.000000 0.000000
0.786282 0.000000 0.000000
0.802309 0.000000 0.000000
0.817962 0.000000 0.000000
0.833146 0.000000 0.000000
0.847917 0.000000 0.000000
0.862234 0.000000 0.000000
0.876070 0.000000 0.000000
0.889421 0.000000 0.000000
0.902291 0.000000 0.000000
0.914601 0.000000 0.000000
0.926384 0.000000 0.000000
0.937596 0.000000 0.000000
0.948176 0.000000 0.000000
0.958093 0.000000 0.000000
0.967340 0.000000 0.000000
0.975798 0.000000 0.000000
0.983404 0.000000 0.000000
0.990019 0.000000 0.000000
0.995454 0.000000 0.000000
0.999251 0.000000 0.000000
1.000000 0.000000 0.000000
1.000000 0.000000 0.000000
1.000000 0.000000 0.000000
1.000000 0.000000 0.000000
1.000000 0.000000 0.000000
0.000000 0.047537 0.000000
0.010453 0.047005 0.000000
0.028453 0.046513 0.000000
0.047801 0.045981 0.000000
0.067553 0.045290 0.000000
0.087699 0.044377 0.000000
0.108073 0.043293 0.000000
0.128743 0.041941 0.000000
0.149559 0.040339 0.000000
0.171294 0.037888 0.000000
0.193355 0.034813 0.000000
0.215337 0.031562 0.000000
0.237182 0.028161 0.000000
0.259050 0.024526 0.000000
0.280932 0.020549 0.000000
0.302850 0.016321 0.000000
0.324745 0.011864 0.000000
0.346638 0.007212 0.000000
0.368497 0.002485 0.000000
0.390415 0.000000 0.000000
0.412411 0.000000 0.000000
0.434356 0.000000 0.000000
0.456201 0.000000 0.000000
0.478029 0.000000 0.000000
0.499753 0.000000 0.000000
0.521264 0.000000 0.000000
0.542434 0.000000 0.000000
0.563297 0.000000 0.000000
0.583811 0.000000 0.000000
0.603990 0.000000 0.000000
0.623830 0.000000 0.000000
0.643308 0.000000 0.000000
0.662453 0.000000 0.000000
0.681209 0.000000 0.000000
0.699589 0.000000 0.000000
0.717634 0.000000 0.000000
0.735288 0.000000 0.000000
0.752562 0.000000 0.000000
0.769431 0.000000 0.000000
0.785932 0.000000 0.000000
0.801996 0.000000 0.000000
0.817644 0.000000 0.000000
0.832863 0.000000 0.000000
0.847630 0.000000 0.000000
0.861969 0.000000 0.000000
0.875826 0.000000 0.000000
0.889197 0.000000 0.000000
0.902065 0.000000 0.000000
0.914396 0.000000 0.000000
0.926219 0.000000 0.000000
0.937420 0.000000 0.000000
0.948019 0.000000 0.000000
0.957964 0.000000 0.000000
0.967220 0.000000 0.000000
0.975690 0.000000 0.000000
0.983302 0.000000 0.000000
0.989949 0.000000 0.000000
0.995386 0.000000 0.000000
0.999220 0.000000 0.000000
1.000000 0.000000 0.000000
1.000000 0.000000 0.000000
1.000000 0.000000 0.000000
1.000000 0.000000 0.000000
1.000000 0.000000 0.000000
0.000000 0.065758 0.000000
0.007971 0.065302 0.000000
0.025758 0.064926 0.000000
0.045376 0.064530 0.000000
0.065678 0.064022 0.000000
0.086194 0.063297 0.000000
0.106887 0.062427 0.000000
0.127799 0.061362 0.000000
0.148884 0.060069 0.000000
0.170747 0.058107 0.000000
0.192645 0.055870 0.000000
0.214495 0.053379 0.000000
0.236355 0.050502 0.000000
0.258291 0.047180 0.000000
0.280219 0.043389 0.000000
0.302213 0.038993 0.000000
0.324141 0.034181 0.000000
0.346086 0.028992 0.000000
0.367977 0.023537 0.000000
0.389916 0.017793 0.000000
0.411715 0.011868 0.000000
0.433481 0.005835 0.000000
0.455208 0.000000 0.000000
0.477039 0.000000 0.000000
0.498824 0.000000 0.000000
0.520387 0.000000 0.000000
0.541627 0.000000 0.000000
0.562521 0.000000 0.000000
0.583084 0.000000 0.000000
0.603293 0.000000 0.000000
0.623162 0.000000 0.000000
0.642669 0.000000 0.000000
0.661843 0.000000 0.000000
0.680627 0.000000 0.000000
0.699067 0.000000 0.000000
0.717106 0.000000 0.000000
0.734835 0.000000 0.000000
0.752118 0.000000 0.000000
0.768998 0.000000 0.000000
0.785494 0.000000 0.000000
0.801627 0.000000 0.000000
0.817256 0.000000 0.000000
0.832514 0.000000 0.000000
0.847317 0.000000 0.000000
0.861653 0.000000 0.000000
0.875545 0.000000 0.000000
0.888927 0.000000 0.000000
0.901805 0.000000 0.000000
0.914179 0.000000 0.000000
0.925982 0.000000 0.000000
0.937225 0.000000 0.000000
0.947835 0.000000 0.000000
0.957792 0.000000 0.000000
0.967069 0.000000 0.000000
0.975560 0.000000 0.000000
0.983193 0.000000 0.000000
0.989834 0.000000 0.000000
0.995322 0.000000 0.000000
0.999179 0.000000 0.000000
1.000000 0.000000 0.000000
1.000000 0.000000 0.000000
1.000000 0.000000 0.000000
1.000000 0.000000 0.000000
1.000000 0.000000 0.000000
0.000000 0.084564 0.000000
0.005090 0.084162 0.000000
0.022475 0.083873 0.000000
0.042277 0.083586 0.000000
0.063266 0.083187 0.000000
0.084205 0.082651 0.000000
0.105277 0.081929 0.000000
0.126494 0.081076 0.000000
0.147949 0.079934 0.000000
0.169635 0.078540 0.000000
0.191428 0.076878 0.000000
0.213306 0.074913 0.000000
0.235255 0.072683 0.000000
0.257264 0.070086 0.000000
0.279309 0.067142 0.000000
0.301367 0.063804 0.000000
0.323382 0.060061 0.000000
0.345390 0.055783 0.000000
0.367378 0.051001 0.000000
0.389346 0.045512 0.000000
0.411222 0.039278 0.000000
0.433037 0.032476 0.000000
0.454768 0.025399 0.000000
0.476441 0.018043 0.000000
0.498068 0.010526 0.000000
0.519448 0.003199 0.000000
0.540650 0.000000 0.000000
0.561596 0.000000 0.000000
0.582210 0.000000 0.000000
0.602470 0.000000 0.000000
0.622353 0.000000 0.000000
0.641926 0.000000 0.000000
0.661113 0.000000 0.000000
0.679961 0.000000 0.000000
0.698414 0.000000 0.000000
0.716515 0.000000 0.000000
0.734225 0.000000 0.000000
0.751552 0.000000 0.000000
0.768489 0.000000 0.000000
0.785013 0.000000 0.000000
0.801129 0.000000 0.000000
0.816841 0.000000 0.000000
0.832097 0.000000 0.000000
0.846925 0.000000 0.000000
0.861286 0.000000 0.000000
0.875191 0.000000 0.000000
0.888597 0.000000 0.000000
0.901511 0.000000 0.000000
0.913876 0.000000 0.000000
0.925723 0.000000 0.000000
0.936980 0.000000 0.000000
0.947623 0.000000 0.000000
0.957594 0.000000 0.000000
0.966886 0.000000 0.000000
0.975393 0.000000 0.000000
0.983052 0.000000 0.000000
0.989730 0.000000 0.000000
0.995237 0.000000 0.000000
0.999129 0.000000 0.000000
1.000000 0.000000 0.000000
1.000000 0.000000 0.000000
1.000000 0.000000 0.000000
1.000000 0.000000 0.000000
1.000000 0.000000 0.000000
0.000000 0.103814 0.000000
0.001741 0.103424 0.000000
0.018647 0.103226 0.000000
0.038289 0.103011 0.000000
0.060135 0.102712 0.000000
0.081771 0.102287 0.000000
0.103282 0.101705 0.000000
0.124796 0.101005 0.000000
0.146393 0.100136 0.000000
0.168114 0.099043 0.000000
0.189963 0.097712 0.000000
0.211919 0.096159 0.000000
0.233948 0.094370 0.000000
0.256002 0.092289 0.000000
0.278093 0.089920 0.000000
0.300240 0.087247 0.000000
0.322345 0.084254 0.000000
0.344429 0.080908 0.000000
0.366477 0.077162 0.000000
0.388532 0.072985 0.000000
0.410503 0.068367 0.000000
0.432394 0.063142 0.000000
0.454233 0.057312 0.000000
0.475985 0.050690 0.000000
0.497620 0.043196 0.000000
0.519050 0.034721 0.000000
0.540141 0.025846 0.000000
0.560913 0.016873 0.000000
0.581394 0.007816 0.000000
0.601502 0.000000 0.000000
0.621472 0.000000 0.000000
0.641043 0.000000 0.000000
0.660298 0.000000 0.000000
0.679178 0.000000 0.000000
0.697679 0.000000 0.000000
0.715795 0.000000 0.000000
0.733567 0.000000 0.000000
0.750893 0.000000 0.000000
0.767876 0.000000 0.000000
0.784443 0.000000 0.000000
0.800588 0.000000 0.000000
0.816328 0.000000 0.000000
0.831612 0.000000 0.000000
0.846468 0.000000 0.000000
0.860856 0.000000 0.000000
0.874787 0.000000 0.000000
0.888220 0.000000 0.000000
0.901137 0.000000 0.000000
0.913562 0.000000 0.000000
0.925413 0.000000 0.000000
0.936696 0.000000 0.000000
0.947355 0.000000 0.000000
0.957361 0.000000 0.000000
0.966671 0.000000 0.000000
0.975212 0.000000 0.000000
0.982878 0.000000 0.000000
0.989593 0.000000 0.000000
0.995129 0.000000 0.000000
0.999071 0.000000 0.000000
1.000000 0.000000 0.000000
1.000000 0.000000 0.000000
1.000000 0.000000 0.000000
1.000000 0.000000 0.000000
1.000000 0.000000 0.000000
0.000000 0.123449 0.000000
0.000000 0.123078 0.000000
0.014146 0.122900 0.000000
0.033551 0.122742 0.000000
0.056432 0.122511 0.000000
0.078967 0.122129 0.000000
0.101177 0.121621 0.000000
0.122819 0.121099 0.000000
0.144534 0.120422 0.000000
0.166358 0.119556 0.000000
0.188278 0.118518 0.000000
0.210308 0.117256 0.000000
0.232412 0.115788 0.000000
0.254563 0.114096 0.000000
0.276695 0.112181 0.000000
0.298885 0.109990 0.000000
0.321073 0.107542 0.000000
0.343242 0.104802 0.000000
0.365358 0.101753 0.000000
0.387464 0.098418 0.000000
0.409508 0.094689 0.000000
0.431475 0.090572 0.000000
0.453376 0.086052 0.000000
0.475197 0.081030 0.000000
0.496947 0.075478 0.000000
0.518468 0.069340 0.000000
0.539661 0.062404 0.000000
0.560502 0.054649 0.000000
0.580999 0.045675 0.000000
0.601130 0.035436 0.000000
0.620906 0.024771 0.000000
0.640313 0.014130 0.000000
0.659429 0.003553 0.000000
0.678294 0.000000 0.000000
0.696829 0.000000 0.000000
0.714978 0.000000 0.000000
0.732799 0.000000 0.000000
0.750188 0.000000 0.000000
0.767187 0.000000 0.000000
0.783771 0.000000 0.000000
0.799961 0.000000 0.000000
0.815732 0.000000 0.000000
0.831059 0.000000 0.000000
0.845931 0.000000 0.000000
0.860349 0.000000 0.000000
0.874322 0.000000 0.000000
0.887783 0.000000 0.000000
0.900717 0.000000 0.000000
0.913160 0.000000 0.000000
0.925072 0.000000 0.000000
0.936362 0.000000 0.000000
0.947059 0.000000 0.000000
0.957084 0.000000 0.000000
0.966423 0.000000 0.000000
0.974979 0.000000 0.000000
0.982696 0.000000 0.000000
0.989432 0.000000 0.000000
0.995007 0.000000 0.000000
0.999001 0.000000 0.000000
1.000000 0.000000 0.000000
1.000000 0.000000 0.000000
1.000000 0.000000 0.000000
1.000000 0.000000 0.000000
1.000000 0.000000 0.000000
0.000000 0.143247 0.000000
0.000000 0.142871 0.000000
0.010237 0.142653 0.000000
0.029515 0.142496 0.000000
0.053370 0.142294 0.000000
0.076676 0.141955 0.000000
0.098605 0.141701 0.000000
0.120475 0.141307 0.000000
0.142356 0.140793 0.000000
0.164318 0.140123 0.000000
0.186361 0.139280 0.000000
0.208498 0.138246 0.000000
0.230655 0.137058 0.000000
0.252860 0.135662 0.000000
0.275107 0.134038 0.000000
0.297374 0.132227 0.000000
0.319583 0.130189 0.000000
0.341814 0.127928 0.000000
0.364011 0.125387 0.000000
0.386162 0.122625 0.000000
0.408289 0.119531 0.000000
0.430324 0.116163 0.000000
0.452274 0.112486 0.000000
0.474166 0.108412 0.000000
0.495989 0.103980 0.000000
0.517595 0.099159 0.000000
0.538860 0.093827 0.000000
0.559775 0.087975 0.000000
0.580355 0.081488 0.000000
0.600578 0.074310 0.000000
0.620439 0.066252 0.000000
0.639931 0.057177 0.000000
0.659096 0.046595 0.000000
0.677828 0.034546 0.000000
0.696221 0.022044 0.000000
0.714209 0.009657 0.000000
0.731935 0.000000 0.000000
0.749359 0.000000 0.000000
0.766392 0.000000 0.000000
0.783039 0.000000 0.000000
0.799262 0.000000 0.000000
0.815065 0.000000 0.000000
0.830438 0.000000 0.000000
0.845329 0.000000 0.000000
0.859778 0.000000 0.000000
0.873807 0.000000 0.000000
0.887287 0.000000 0.000000
0.900275 0.000000 0.000000
0.912758 0.000000 0.000000
0.924667 0.000000 0.000000
0.935988 0.000000 0.000000
0.946706 0.000000 0.000000
0.956780 0.000000 0.000000
0.966142 0.000000 0.000000
0.974738 0.000000 0.000000
0.982482 0.000000 0.000000
0.989249 0.000000 0.000000
0.994876 0.000000 0.000000
0.998919 0.000000 0.000000
1.000000 0.000000 0.000000
1.000000 0.000000 0.000000
1.000000 0.000000 0.000000
1.000000 0.000000 0.000000
1.000000 0.000000 0.000000
0.000000 0.162998 0.000000
0.000000 0.162618 0.000000
0.007518 0.162373 0.000000
0.026831 0.162217 0.000000
0.050437 0.162162 0.000000
0.073162 0.162098 0.000000
0.095496 0.161921 0.000000
0.117694 0.161659 0.000000
0.139846 0.161274 0.000000
0.161996 0.160732 0.000000
0.184177 0.160051 0.000000
0.206418 0.159215 0.000000
0.228683 0.158223 0.000000
0.250979 0.157057 0.000000
0.273299 0.155700 0.000000
0.295641 0.154169 0.000000
0.317946 0.152467 0.000000
0.340215 0.150536 0.000000
0.362491 0.148416 0.000000
0.384740 0.146051 0.000000
0.406871 0.143478 0.000000
0.428987 0.140625 0.000000
0.450981 0.137548 0.000000
0.472937 0.134137 0.000000
0.494807 0.130469 0.000000
0.516490 0.126489 0.000000
0.537833 0.122126 0.000000
0.558828 0.117421 0.000000
0.579452 0.112266 0.000000
0.599757 0.106631 0.000000
0.619668 0.100541 0.000000
0.639249 0.093786 0.000000
0.658461 0.086399 0.000000
0.677315 0.078111 0.000000
0.695756 0.068880 0.000000
0.713840 0.058281 0.000000
0.731542 0.045987 0.000000
0.748838 0.031851 0.000000
0.765740 0.017535 0.000000
0.782256 0.003547 0.000000
0.798462 0.000000 0.000000
0.814314 0.000000 0.000000
0.829695 0.000000 0.000000
0.844673 0.000000 0.000000
0.859156 0.000000 0.000000
0.873206 0.000000 0.000000
0.886731 0.000000 0.000000
0.899751 0.000000 0.000000
0.912267 0.000000 0.000000
0.924210 0.000000 0.000000
0.935584 0.000000 0.000000
0.946325 0.000000 0.000000
0.956433 0.000000 0.000000
0.965829 0.000000 0.000000
0.974460 0.000000 0.000000
0.982241 0.000000 0.000000
0.989054 0.000000 0.000000
0.994713 0.000000 0.000000
0.998824 0.000000 0.000000
1.000000 0.000000 0.000000
1.000000 0.000000 0.000000
1.000000 0.000000 0.000000
1.000000 0.000000 0.000000
1.000000 0.000000 0.000000
0.000000 0.182706 0.000000
0.000000 0.182361 0.000000
0.004823 0.182225 0.000000
0.022107 0.182310 0.000000
0.045044 0.182402 0.000000
0.068768 0.182386 0.000000
0.091803 0.182311 0.000000
0.114461 0.182107 0.000000
0.136931 0.181816 0.000000
0.159339 0.181385 0.000000
0.181729 0.180833 0.000000
0.204110 0.180142 0.000000
0.226519 0.179313 0.000000
0.248904 0.178366 0.000000
0.271315 0.177225 0.000000
0.293691 0.175947 0.000000
0.316090 0.174495 0.000000
0.338454 0.172831 0.000000
0.360787 0.171014 0.000000
0.383095 0.169004 0.000000
0.405304 0.166785 0.000000
0.427480 0.164356 0.000000
0.449553 0.161699 0.000000
0.471532 0.158834 0.000000
0.493482 0.155687 0.000000
0.515200 0.152315 0.000000
0.536602 0.148683 0.000000
0.557654 0.144715 0.000000
0.578372 0.140453 0.000000
0.598752 0.135804 0.000000
0.618702 0.130847 0.000000
0.638358 0.125399 0.000000
0.657629 0.119576 0.000000
0.676527 0.113218 0.000000
0.695047 0.106240 0.000000
0.713184 0.098583 0.000000
0.730962 0.090153 0.000000
0.748343 0.080756 0.000000
0.765317 0.070164 0.000000
0.781875 0.057964 0.000000
0.798034 0.043472 0.000000
0.813745 0.027223 0.000000
0.829042 0.011121 0.000000
0.843951 0.000000 0.000000
0.858481 0.000000 0.000000
0.872542 0.000000 0.000000
0.886138 0.000000 0.000000
0.899193 0.000000 0.000000
0.911733 0.000000 0.000000
0.923731 0.000000 0.000000
0.935129 0.000000 0.000000
0.945915 0.000000 0.000000
0.956049 0.000000 0.000000
0.965498 0.000000 0.000000
0.974166 0.000000 0.000000
0.981979 0.000000 0.000000
0.988835 0.000000 0.000000
0.994543 0.000000 0.000000
0.998718 0.000000 0.000000
1.000000 0.000000 0.000000
1.000000 0.000000 0.000000
1.000000 0.000000 0.000000
1.000000 0.000000 0.000000
1.000000 0.000000 0.000000
0.000000 0.202816 0.000000
0.000000 0.202700 0.000000
0.000000 0.202584 0.000000
0.015786 0.202674 0.000000
0.038323 0.202783 0.000000
0.063526 0.202823 0.000000
0.087406 0.202793 0.000000
0.110688 0.202669 0.000000
0.133596 0.202456 0.000000
0.156293 0.202118 0.000000
0.178965 0.201678 0.000000
0.201539 0.201098 0.000000
0.224089 0.200416 0.000000
0.246618 0.199615 0.000000
0.269119 0.198657 0.000000
0.291625 0.197561 0.000000
0.314097 0.196309 0.000000
0.336535 0.194900 0.000000
0.358925 0.193336 0.000000
0.381289 0.191597 0.000000
0.403575 0.189684 0.000000
0.425791 0.187578 0.000000
0.447942 0.185280 0.000000
0.470000 0.182790 0.000000
0.491953 0.180109 0.000000
0.513761 0.177200 0.000000
0.535238 0.174044 0.000000
0.556365 0.170660 0.000000
0.577157 0.167014 0.000000
0.597574 0.163085 0.000000
0.617596 0.158896 0.000000
0.637306 0.154353 0.000000
0.656614 0.149515 0.000000
0.675566 0.144253 0.000000
0.694174 0.138627 0.000000
0.712364 0.132510 0.000000
0.730167 0.125964 0.000000
0.747604 0.118772 0.000000
0.764638 0.110909 0.000000
0.781260 0.102296 0.000000
0.797464 0.092897 0.000000
0.813264 0.082199 0.000000
0.828610 0.070057 0.000000
0.843528 0.055961 0.000000
0.857976 0.038962 0.000000
0.871985 0.020576 0.000000
0.885477 0.003034 0.000000
0.898577 0.000000 0.000000
0.911164 0.000000 0.000000
0.923189 0.000000 0.000000
0.934634 0.000000 0.000000
0.945457 0.000000 0.000000
0.955630 0.000000 0.000000
0.965118 0.000000 0.000000
0.973819 0.000000 0.000000
0.981683 0.000000 0.000000
0.988581 0.000000 0.000000
0.994349 0.000000 0.000000
0.998603 0.000000 0.000000
1.000000 0.000000 0.000000
1.000000 0.000000 0.000000
1.000000 0.000000 0.000000
1.000000 0.000000 0.000000
1.000000 0.000000 0.000000
0.000000 0.223321 0.000000
0.000000 0.223224 0.000000
0.000000 0.223107 0.000000
0.008692 0.223116 0.000000
0.030520 0.223240 0.000000
0.057161 0.223355 0.000000
0.082242 0.223356 0.000000
0.106288 0.223295 0.000000
0.129770 0.223141 0.000000
0.152935 0.222862 0.000000
0.175846 0.222515 0.000000
0.198650 0.222066 0.000000
0.221377 0.221515 0.000000
0.244087 0.220806 0.000000
0.266714 0.219995 0.000000
0.289348 0.219065 0.000000
0.311912 0.217978 0.000000
0.334424 0.216771 0.000000
0.356907 0.215389 0.000000
0.379328 0.213908 0.000000
0.401671 0.212232 0.000000
0.423983 0.210400 0.000000
0.446154 0.208393 0.000000
0.468270 0.206231 0.000000
0.490302 0.203876 0.000000
0.512199 0.201309 0.000000
0.533734 0.198588 0.000000
0.554936 0.195637 0.000000
0.575802 0.192476 0.000000
0.596256 0.189086 0.000000
0.616367 0.185468 0.000000
0.636096 0.181586 0.000000
0.655491 0.177401 0.000000
0.674479 0.172973 0.000000
0.693139 0.168228 0.000000
0.711381 0.163128 0.000000
0.729251 0.157678 0.000000
0.746723 0.151784 0.000000
0.763794 0.145509 0.000000
0.780468 0.138705 0.000000
0.796737 0.131343 0.000000
0.812592 0.123338 0.000000
0.827993 0.114626 0.000000
0.842970 0.104968 0.000000
0.857471 0.094259 0.000000
0.871532 0.082213 0.000000
0.885085 0.068413 0.000000
0.898114 0.052070 0.000000
0.910653 0.032167 0.000000
0.922644 0.012048 0.000000
0.934088 0.000000 0.000000
0.944961 0.000000 0.000000
0.955182 0.000000 0.000000
0.964704 0.000000 0.000000
0.973448 0.000000 0.000000
0.981366 0.000000 0.000000
0.988319 0.000000 0.000000
0.994135 0.000000 0.000000
0.998468 0.000000 0.000000
1.000000 0.000000 0.000000
1.000000 0.000000 0.000000
1.000000 0.000000 0.000000
1.000000 0.000000 0.000000
1.000000 0.000000 0.000000
0.000000 0.243927 0.000000
0.000000 0.243830 0.000000
0.000000 0.243733 0.000000
0.001247 0.243652 0.000000
0.022076 0.243791 0.000000
0.049503 0.243936 0.000000
0.076146 0.243991 0.000000
0.101251 0.243977 0.000000
0.125382 0.243865 0.000000
0.149043 0.243663 0.000000
0.172339 0.243393 0.000000
0.195462 0.243019 0.000000
0.218421 0.242542 0.000000
0.241310 0.241964 0.000000
0.264101 0.241284 0.000000
0.286844 0.240483 0.000000
0.309537 0.239544 0.000000
0.332141 0.238485 0.000000
0.354699 0.237308 0.000000
0.377233 0.235973 0.000000
0.399652 0.234519 0.000000
0.421982 0.232908 0.000000
0.444270 0.231160 0.000000
0.466425 0.229256 0.000000
0.488554 0.227176 0.000000
0.510482 0.224941 0.000000
0.532095 0.222531 0.000000
0.553354 0.219927 0.000000
0.574259 0.217149 0.000000
0.594788 0.214218 0.000000
0.614954 0.211017 0.000000
0.634773 0.207605 0.000000
0.654239 0.204002 0.000000
0.673280 0.200152 0.000000
0.691975 0.196035 0.000000
0.710270 0.191692 0.000000
0.728190 0.187008 0.000000
0.745714 0.182025 0.000000
0.762879 0.176704 0.000000
0.779573 0.171049 0.000000
0.795906 0.164986 0.000000
0.811795 0.158481 0.000000
0.827244 0.151500 0.000000
0.842257 0.143974 0.000000
0.856820 0.135778 0.000000
0.870917 0.126886 0.000000
0.884522 0.117182 0.000000
0.897616 0.106408 0.000000
0.910191 0.094396 0.000000
0.922233 0.080708 0.000000
0.933684 0.064882 0.000000
