public/luts/osmo-action-5-pro.cube
#Created by: Affinity
TITLE "OSMO Action 5 Pro"
#LUT size
LUT_3D_SIZE 4
#data domain
DOMAIN_MIN 0.0 0.0 0.0
DOMAIN_MAX 1.0 1.0 1.0
#LUT data points
0.000752 0.000000 0.000000
0.437029 0.000000 0.000000
0.833723 0.000000 0.000000
1.000000 0.000000 0.000000
0.000000 0.410288 0.000000
0.401253 0.406754 0.000000
0.818734 0.372459 0.000000
1.000000 0.276470 0.000000
0.000000 0.798156 0.000000
0.286917 0.797410 0.000000
0.779499 0.789443 0.000000
1.000000 0.768316 0.000000
0.000000 1.000000 0.000000
0.000000 1.000000 0.000000
0.705692 1.000000 0.000000
0.998522 1.000000 0.000000
0.000000 0.000000 0.445511
0.436661 0.000000 0.379054
0.837041 0.000000 0.315275
1.000000 0.000000 0.266607
0.000000 0.410102 0.328307
0.407908 0.404720 0.301823
0.823197 0.368300 0.266550
1.000000 0.269039 0.233614
0.000000 0.797886 0.227294
0.303184 0.796866 0.215781
0.784390 0.788036 0.213741
1.000000 0.766479 0.198737
0.000000 1.000000 0.109432
0.000000 1.000000 0.103387
0.712090 1.000000 0.095396
0.999242 1.000000 0.047651
0.000000 0.000000 0.859560
0.401380 0.000000 0.828896
0.833481 0.000000 0.780483
1.000000 0.000000 0.732468
0.000000 0.405798 0.793016
0.379894 0.397213 0.774697
0.821833 0.356199 0.741551
1.000000 0.247706 0.705682
0.000000 0.796932 0.707677
0.290889 0.794698 0.705276
0.786562 0.784562 0.706040
1.000000 0.761612 0.697754
0.000000 1.000000 0.652033
0.000000 1.000000 0.649165
0.719404 1.000000 0.673838
0.999999 1.000000 0.692333
0.000000 0.000000 1.000000
0.301833 0.000000 1.000000
0.815179 0.000000 1.000000
1.000000 0.000000 1.000000
0.000000 0.391368 1.000000
0.278177 0.379978 1.000000
0.805468 0.333438 1.000000
1.000000 0.206987 1.000000
0.000000 0.794240 1.000000
0.175866 0.791173 1.000000
0.773382 0.779162 1.000000
1.000000 0.754151 1.000000
0.000000 1.000000 1.000000
0.000000 1.000000 1.000000
0.711900 1.000000 1.000000
1.000000 0.999993 0.999971
