public/luts/osmo-action-5-pro.cube
#Created by: Affinity
TITLE "OSMO Action 5 Pro"
#LUT size
LUT_3D_SIZE 8
#data domain
DOMAIN_MIN 0.0 0.0 0.0
DOMAIN_MAX 1.0 1.0 1.0
#LUT data points
0.000752 0.000000 0.000000
0.172084 0.000000 0.000000
0.371532 0.000000 0.000000
0.565255 0.000000 0.000000
0.736492 0.000000 0.000000
0.876545 0.000000 0.000000
0.976014 0.000000 0.000000
1.000000 0.000000 0.000000
0.000000 0.162998 0.000000
0.161996 0.160732 0.000000
0.362491 0.148416 0.000000
0.558828 0.117421 0.000000
0.731542 0.045987 0.000000
0.873206 0.000000 0.000000
0.974460 0.000000 0.000000
1.000000 0.000000 0.000000
0.000000 0.347812 0.000000
0.120737 0.347907 0.000000
0.341105 0.344974 0.000000
0.543796 0.335178 0.000000
0.721719 0.316291 0.000000
0.866712 0.285540 0.000000
0.970867 0.237348 0.000000
1.000000 0.156000 0.000000
0.000000 0.533528 0.000000
0.000000 0.532962 0.000000
0.305396 0.532688 0.000000
0.521189 0.528606 0.000000
0.706236 0.519886 0.000000
0.856139 0.505314 0.000000
0.964931 0.483591 0.000000
1.000000 0.452662 0.000000
0.000000 0.701209 0.000000
0.000000 0.700901 0.000000
0.244766 0.700694 0.000000
0.488937 0.698893 0.000000
0.685407 0.694465 0.000000
0.841460 0.686191 0.000000
0.956462 0.674155 0.000000
1.000000 0.657908 0.000000
0.000000 0.841697 0.000000
0.000000 0.841500 0.000000
0.117884 0.841124 0.000000
0.440563 0.839845 0.000000
0.655779 0.836992 0.000000
0.822407 0.832530 0.000000
0.945537 0.825947 0.000000
1.000000 0.816964 0.000000
0.000000 0.948888 0.000000
0.000000 0.948788 0.000000
0.000000 0.948488 0.000000
0.366577 0.947629 0.000000
0.615906 0.946268 0.000000
0.798111 0.944108 0.000000
0.931603 0.940878 0.000000
1.000000 0.936341 0.000000
0.000000 1.000000 0.000000
0.000000 1.000000 0.000000
0.000000 1.000000 0.000000
0.243519 1.000000 0.000000
0.561179 1.000000 0.000000
0.766805 1.000000 0.000000
0.913772 1.000000 0.000000
0.998522 1.000000 0.000000
0.000000 0.000000 0.173826
0.173344 0.000000 0.157125
0.372969 0.000000 0.134465
0.566733 0.000000 0.114183
0.737715 0.000000 0.096126
0.877507 0.000000 0.078769
0.976596 0.000000 0.060528
1.000000 0.000000 0.040343
0.000000 0.162401 0.137530
0.162145 0.160041 0.127117
0.364111 0.146974 0.113557
0.560483 0.115055 0.099766
0.732941 0.040494 0.087153
0.874329 0.000000 0.071781
0.975096 0.000000 0.052894
1.000000 0.000000 0.030844
0.000000 0.347970 0.099325
0.124992 0.347850 0.093867
0.344324 0.344576 0.084265
0.546396 0.334457 0.073051
0.723628 0.315255 0.060108
0.868015 0.284132 0.044992
0.971525 0.235509 0.026024
1.000000 0.152935 0.003457
0.000000 0.533485 0.054793
0.006980 0.532903 0.052550
0.310038 0.532457 0.043808
0.524179 0.528209 0.032941
0.708167 0.519299 0.017862
0.857404 0.504567 0.001931
0.965596 0.482771 0.000000
1.000000 0.451750 0.000000
0.000000 0.701031 0.000000
0.000000 0.700706 0.000000
0.250394 0.700469 0.000000
0.491973 0.698611 0.000000
0.687304 0.694122 0.000000
0.842682 0.685797 0.000000
0.957133 0.673723 0.000000
1.000000 0.657441 0.000000
0.000000 0.841579 0.000000
0.000000 0.841395 0.000000
0.128800 0.841010 0.000000
0.443747 0.839683 0.000000
0.657701 0.836818 0.000000
0.823637 0.832327 0.000000
0.946252 0.825729 0.000000
1.000000 0.816704 0.000000
0.000000 0.948824 0.000000
0.000000 0.948715 0.000000
0.000000 0.948415 0.000000
0.370562 0.947553 0.000000
0.618021 0.946165 0.000000
0.799381 0.943994 0.000000
0.932374 0.940762 0.000000
1.000000 0.936223 0.000000
0.000000 1.000000 0.000000
0.000000 1.000000 0.000000
0.000000 1.000000 0.000000
0.249612 1.000000 0.000000
0.563515 1.000000 0.000000
0.768136 1.000000 0.000000
0.914561 1.000000 0.000000
0.998696 1.000000 0.000000
0.000000 0.000000 0.377787
0.162983 0.000000 0.354063
0.371096 0.000000 0.322964
0.568054 0.000000 0.294461
0.739722 0.000000 0.268925
0.879241 0.000000 0.245835
0.977590 0.000000 0.224616
1.000000 0.000000 0.207739
0.000000 0.161057 0.327777
0.152885 0.157343 0.313032
0.363783 0.142761 0.293505
0.562325 0.108608 0.274780
0.735027 0.026686 0.260570
0.876170 0.000000 0.241506
0.976127 0.000000 0.220847
1.000000 0.000000 0.204119
0.000000 0.347843 0.279491
0.121778 0.347245 0.270967
0.346335 0.343335 0.256542
0.549353 0.332572 0.241790
0.726247 0.312777 0.226564
0.869999 0.280964 0.211520
0.972651 0.231205 0.197006
1.000000 0.145782 0.185860
0.000000 0.533460 0.236575
0.016486 0.532813 0.234504
0.314810 0.532003 0.220782
0.528265 0.527401 0.209090
0.711321 0.518212 0.196634
0.859627 0.503245 0.183425
0.966772 0.480317 0.174208
1.000000 0.448982 0.162869
0.000000 0.701034 0.194262
0.000000 0.700659 0.193173
0.258884 0.700313 0.183438
0.497219 0.698258 0.173393
0.690274 0.693066 0.168256
0.844800 0.684568 0.163094
0.958432 0.672348 0.155737
1.000000 0.655920 0.144504
0.000000 0.841489 0.147197
0.000000 0.841265 0.146186
0.147058 0.840856 0.140518
0.449439 0.839169 0.139224
0.661194 0.836226 0.136168
0.825968 0.831641 0.130222
0.947657 0.824947 0.121194
1.000000 0.815864 0.107332
0.000000 0.948657 0.090075
0.000000 0.948539 0.088842
0.000000 0.948230 0.085433
0.378168 0.947320 0.084438
0.622177 0.945902 0.078054
0.802016 0.943691 0.066096
0.933928 0.940431 0.046303
1.000000 0.935858 0.012038
0.000000 1.000000 0.000000
0.000000 1.000000 0.000000
0.000000 1.000000 0.000000
0.262365 1.000000 0.000000
0.568823 1.000000 0.000000
0.771203 1.000000 0.000000
0.916357 1.000000 0.000000
0.999088 1.000000 0.000000
0.000000 0.000000 0.577299
0.131481 0.000000 0.556825
0.361172 0.000000 0.525071
0.565061 0.000000 0.494259
0.739535 0.000000 0.465053
0.879993 0.000000 0.437758
0.978274 0.000000 0.412374
1.000000 0.000000 0.392669
0.000000 0.156505 0.529896
0.121550 0.151524 0.516773
0.355210 0.135230 0.494370
0.559958 0.097561 0.473471
0.735040 0.006253 0.458338
0.877114 0.000000 0.433288
0.976898 0.000000 0.408742
1.000000 0.000000 0.389506
0.000000 0.346830 0.478015
0.091585 0.345517 0.470110
0.340269 0.340932 0.452194
0.548501 0.329340 0.434856
0.727145 0.308648 0.416865
0.871250 0.275716 0.398994
0.973561 0.224060 0.382098
1.000000 0.133562 0.370665
0.000000 0.533042 0.430579
0.000000 0.532115 0.429162
0.312214 0.530935 0.412020
0.529157 0.525879 0.398249
0.713116 0.516225 0.383663
0.861235 0.500465 0.370874
0.967860 0.476830 0.363594
1.000000 0.444960 0.352447
0.000000 0.700780 0.386435
0.000000 0.700309 0.385381
0.260861 0.699773 0.373399
0.499948 0.697324 0.363246
0.692563 0.691600 0.362395
0.846802 0.682830 0.359709
0.959798 0.670338 0.355637
1.000000 0.653639 0.347685
0.000000 0.841256 0.343045
0.000000 0.841006 0.342195
0.157885 0.840410 0.337693
0.453997 0.838437 0.342725
0.664420 0.835348 0.344383
0.828437 0.830595 0.344301
0.949284 0.823757 0.342738
1.000000 0.814515 0.337759
0.000000 0.948375 0.310198
0.000000 0.948266 0.309454
0.000000 0.947910 0.307341
0.385756 0.946941 0.316846
0.626500 0.945450 0.321078
0.804924 0.943157 0.323147
0.935820 0.939802 0.323768
1.000000 0.935114 0.321801
0.000000 1.000000 0.275786
0.000000 1.000000 0.275071
0.000000 1.000000 0.273033
0.275993 1.000000 0.279734
0.574385 1.000000 0.287029
0.774493 1.000000 0.291072
0.918496 1.000000 0.293499
0.999546 1.000000 0.294818
0.000000 0.000000 0.755706
0.061724 0.000000 0.746205
0.341517 0.000000 0.719556
0.556627 0.000000 0.694322
0.736337 0.000000 0.668704
0.879125 0.000000 0.643321
0.978314 0.000000 0.618475
1.000000 0.000000 0.598068
0.000000 0.147601 0.723137
0.043760 0.141081 0.717524
0.336189 0.123189 0.696649
0.552010 0.080000 0.678701
0.732179 0.000000 0.662973
0.876461 0.000000 0.638811
0.976997 0.000000 0.614838
1.000000 0.000000 0.594951
0.000000 0.344319 0.680511
0.000000 0.341826 0.678499
0.323064 0.337041 0.659663
0.542019 0.324501 0.643568
0.725066 0.302659 0.626219
0.870970 0.268176 0.608307
0.973859 0.213844 0.590716
1.000000 0.115226 0.578413
0.000000 0.532073 0.637741
0.000000 0.530958 0.636327
0.297619 0.529213 0.621830
0.524461 0.523619 0.608506
0.712088 0.513393 0.593977
0.861341 0.496455 0.584577
0.968402 0.472148 0.576372
1.000000 0.439589 0.564197
0.000000 0.700249 0.595794
0.000000 0.699713 0.594687
0.250182 0.698892 0.583900
0.496889 0.695794 0.577829
0.692328 0.689722 0.576731
0.847532 0.680593 0.573852
0.960662 0.667724 0.569722
1.000000 0.650664 0.561672
0.000000 0.840889 0.554059
0.000000 0.840612 0.553237
0.151322 0.839687 0.553101
0.453673 0.837561 0.558721
0.665564 0.834259 0.560960
0.829891 0.829297 0.561595
0.950538 0.822236 0.561193
1.000000 0.812784 0.557395
0.000000 0.948046 0.529413
0.000000 0.947909 0.528690
0.000000 0.947525 0.526660
0.388902 0.946483 0.538236
0.629156 0.944901 0.544174
0.807157 0.942503 0.548403
0.937479 0.939011 0.551813
1.000000 0.934199 0.553034
0.000000 1.000000 0.504346
0.000000 1.000000 0.503682
0.000000 1.000000 0.501983
0.285329 1.000000 0.512151
0.578869 1.000000 0.523325
0.777566 1.000000 0.531832
0.920601 1.000000 0.540099
0.999895 1.000000 0.548802
0.000000 0.000000 0.905408
0.000000 0.000000 0.902563
0.309563 0.000000 0.886876
0.541971 0.000000 0.870641
0.729552 0.000000 0.852669
0.876242 0.000000 0.833634
0.977482 0.000000 0.813933
1.000000 0.000000 0.796222
0.000000 0.133141 0.888918
0.000000 0.125341 0.886892
0.304242 0.104606 0.874253
0.537397 0.051356 0.861989
0.725773 0.000000 0.847844
0.873767 0.000000 0.829682
0.976250 0.000000 0.810625
1.000000 0.000000 0.793380
0.000000 0.339748 0.861411
0.000000 0.336925 0.859736
0.291660 0.331200 0.849006
0.528783 0.317725 0.837285
0.719329 0.294599 0.823861
0.868678 0.258119 0.809216
0.973257 0.200060 0.794071
1.000000 0.087965 0.782116
0.000000 0.530221 0.830178
0.000000 0.528916 0.828972
0.267154 0.526545 0.820189
0.512618 0.520449 0.810223
0.707272 0.509408 0.799228
0.859450 0.491405 0.791811
0.968017 0.466325 0.783062
1.000000 0.432757 0.771409
0.000000 0.699368 0.797100
0.000000 0.698735 0.796126
0.220293 0.697581 0.789338
0.486418 0.693842 0.786110
0.688343 0.687344 0.783655
0.846315 0.677796 0.779701
0.960610 0.664504 0.774519
1.000000 0.646996 0.766500
0.000000 0.840264 0.764268
0.000000 0.839938 0.763404
0.115342 0.838851 0.763684
0.445708 0.836471 0.767246
0.662938 0.832920 0.767744
0.829433 0.827702 0.766899
0.950884 0.820371 0.765160
1.000000 0.810642 0.760925
0.000000 0.947652 0.743043
0.000000 0.947505 0.742434
0.000000 0.947056 0.740676
0.384321 0.945917 0.748421
0.628191 0.944213 0.752199
0.807579 0.941685 0.754712
0.938313 0.938042 0.756557
1.000000 0.933088 0.756875
0.000000 1.000000 0.721616
0.000000 1.000000 0.721112
0.000000 1.000000 0.719652
0.285178 1.000000 0.727223
0.580003 1.000000 0.735714
0.779012 1.000000 0.742321
0.921986 1.000000 0.748851
1.000000 1.000000 0.756160
0.000000 0.000000 0.999475
0.000000 0.000000 0.998948
0.260068 0.000000 0.997062
0.519866 0.000000 0.993113
0.718750 0.000000 0.986927
0.871069 0.000000 0.978688
0.975618 0.000000 0.968734
1.000000 0.000000 0.957882
0.000000 0.111233 0.997442
0.000000 0.102053 0.996747
0.253668 0.075725 0.994533
0.514948 0.006337 0.990623
0.715245 0.000000 0.984490
0.868749 0.000000 0.976395
0.974451 0.000000 0.966623
1.000000 0.000000 0.955957
0.000000 0.332711 0.990387
0.000000 0.329637 0.989601
0.239851 0.322874 0.987006
0.507558 0.308565 0.982615
0.709339 0.283965 0.976472
0.864020 0.244994 0.968635
0.971578 0.181809 0.959481
1.000000 0.043088 0.950449
0.000000 0.527180 0.977657
0.000000 0.525704 0.976922
0.212743 0.522665 0.974271
0.492244 0.516095 0.969891
0.697779 0.504003 0.964503
0.855180 0.485165 0.958462
0.966541 0.459170 0.951300
1.000000 0.424463 0.942687
0.000000 0.697944 0.960339
0.000000 0.697229 0.959690
0.159080 0.695662 0.957265
0.466941 0.691405 0.954807
0.679758 0.684450 0.951529
0.842587 0.674419 0.947095
0.959394 0.660606 0.941715
1.000000 0.642590 0.934949
0.000000 0.839285 0.940760
0.000000 0.838906 0.940189
0.000000 0.837887 0.938676
0.428056 0.835116 0.939010
0.655568 0.831304 0.937275
0.826432 0.825780 0.934564
0.950025 0.818140 0.931128
1.000000 0.808131 0.926431
0.000000 0.947154 0.922624
0.000000 0.946970 0.922172
0.000000 0.946482 0.920910
0.368706 0.945235 0.922645
0.622250 0.943401 0.922774
0.805439 0.940699 0.922038
0.937887 0.936898 0.920812
1.000000 0.931743 0.918727
0.000000 1.000000 0.904222
0.000000 1.000000 0.903818
0.000000 1.000000 0.902756
0.271689 1.000000 0.905144
0.575961 1.000000 0.908035
0.777889 1.000000 0.909873
0.922087 1.000000 0.911579
1.000000 1.000000 0.913616
0.000000 0.000000 1.000000
0.000000 0.000000 1.000000
0.177606 0.000000 1.000000
0.488086 0.000000 1.000000
0.703102 0.000000 1.000000
0.863240 0.000000 1.000000
0.972528 0.000000 1.000000
1.000000 0.000000 1.000000
0.000000 0.079738 1.000000
0.000000 0.064674 1.000000
0.168109 0.025278 1.000000
0.483268 0.000000 1.000000
0.699868 0.000000 1.000000
0.861069 0.000000 1.000000
0.971408 0.000000 1.000000
1.000000 0.000000 1.000000
0.000000 0.322375 1.000000
0.000000 0.319093 1.000000
0.147860 0.311208 1.000000
0.476242 0.296247 1.000000
0.694380 0.269928 1.000000
0.856636 0.227740 1.000000
0.968628 0.156991 1.000000
1.000000 0.000000 1.000000
0.000000 0.522421 1.000000
0.000000 0.520829 1.000000
0.104151 0.516935 1.000000
0.461338 0.510216 1.000000
0.683402 0.497476 1.000000
0.848179 0.477750 1.000000
0.963741 0.450713 1.000000
1.000000 0.414561 1.000000
0.000000 0.695723 1.000000
0.000000 0.694894 1.000000
0.000000 0.692679 1.000000
0.436499 0.688445 1.000000
0.665983 0.681016 1.000000
0.836051 0.670491 1.000000
0.956777 0.656107 1.000000
1.000000 0.637425 1.000000
0.000000 0.838022 1.000000
0.000000 0.837603 1.000000
0.000000 0.836434 1.000000
0.398273 0.833519 1.000000
0.642626 0.829407 1.000000
0.820442 0.823596 1.000000
0.947667 0.815596 1.000000
1.000000 0.805184 1.000000
0.000000 0.946527 1.000000
0.000000 0.946324 1.000000
0.000000 0.945768 1.000000
0.338991 0.944444 1.000000
0.610385 0.942444 1.000000
0.800173 0.939572 1.000000
0.935900 0.935566 1.000000
1.000000 0.930204 1.000000
0.000000 1.000000 1.000000
0.000000 1.000000 1.000000
0.000000 1.000000 1.000000
0.239029 1.000000 1.000000
0.565329 1.000000 1.000000
0.773432 1.000000 1.000000
0.920491 1.000000 1.000000
1.000000 0.999993 0.999971
